icons/Color/scalable/gimp-tool-colorize.svg

<svg height="16" viewBox="0 0 16 16" width="16" xmlns="http://www.w3.org/2000/svg" xmlns:xlink="http://www.w3.org/1999/xlink"><linearGradient id="a" gradientUnits="userSpaceOnUse" x1="-14" x2="-1" y1="2.25" y2="2.25"><stop offset="0" stop-color="#edd400"/><stop offset="1" stop-color="#c00"/></linearGradient><path d="m14.09482 2.12222c.520673 0 .90518.4037031.90518.859491v1.627065c0 .4558076-.384507.8590756-.90518.8590756h-5.496026c-.4203304 0-.5216641.058048-.6541238.1608828-.1324597.1028047-.1980123.274366-.1980123.5366979l-.00114.8345677h-.4921763l.00114-.8350523c.0000872-.3272919.1153034-.6855185.3752962-.8872811.2601259-.2018812.481149-.2776666.9690032-.2776666h5.496026c.210026 0 .413004-.124274.413004-.3911746v-1.627065c0-.2668907-.202978-.4455726-.413004-.4455726h-4.094807v-.4139382h4.094807z" fill="#fff" stroke="#000" stroke-width=".5"/><g transform="scale(-1 1)"><rect fill="#204a87" height="8.681456" ry=".308624" stroke="#204a87" stroke-width=".318544" width="2.181456" x="-8.590713" y="7.159272"/><rect fill="url(#a)" height="3.997549" rx=".789406" ry="1.462601" stroke="#000" stroke-width=".502451" width="12.497549" x="-13.748775" y=".251225"/><path d="m-16 0h16v16h-16z" fill="#505050" opacity="0"/></g><path d="m8.6274803 8.1557354h-2.2310314c-.3636403 2.2196756-.2738056 4.3539486-.00507 6.5736536.7784373.181915 1.4815944.118496 2.2209596.01206.2612867-2.219612.3477822-4.365604.015159-6.585197z" fill="#729fcf" stroke="#3465a4" stroke-width=".311477"/></svg>

<?xml version="1.0" encoding="UTF-8" standalone="no"?>
<!-- Created with Inkscape (http://www.inkscape.org/) -->

<svg
   xmlns:osb="http://www.openswatchbook.org/uri/2009/osb"
   xmlns:dc="http://purl.org/dc/elements/1.1/"
   xmlns:cc="http://creativecommons.org/ns#"
   xmlns:rdf="http://www.w3.org/1999/02/22-rdf-syntax-ns#"
   xmlns:svg="http://www.w3.org/2000/svg"
   xmlns="http://www.w3.org/2000/svg"
   xmlns:xlink="http://www.w3.org/1999/xlink"
   xmlns:sodipodi="http://sodipodi.sourceforge.net/DTD/sodipodi-0.dtd"
   xmlns:inkscape="http://www.inkscape.org/namespaces/inkscape"
   inkscape:export-ydpi="90.000000"
   inkscape:export-xdpi="90.000000"
   inkscape:export-filename="/home/jimmac/src/cvs/gnome/gimp/themes/Default/images/stock-layers-16.png"
   width="16"
   height="16"
   id="svg11300"
   sodipodi:version="0.32"
   inkscape:version="0.91+devel r"
   sodipodi:docname="gimp-tool-colorize.svg"
   version="1.0"
   viewBox="0 0 16 16">
  <sodipodi:namedview
     inkscape:cy="7.8113468"
     inkscape:cx="8.5103865"
     inkscape:zoom="11.459716"
     inkscape:window-height="1016"
     inkscape:window-width="1920"
     inkscape:pageshadow="2"
     inkscape:pageopacity="0.0"
     borderopacity="0.17254902"
     bordercolor="#666"
     pagecolor="#ffffff"
     id="base"
     inkscape:showpageshadow="false"
     showborder="true"
     inkscape:window-x="0"
     inkscape:window-y="27"
     inkscape:current-layer="layer1"
     width="16px"
     height="16px"
     showgrid="true"
     inkscape:window-maximized="1"
     inkscape:document-units="px"
     inkscape:snap-global="false">
    <inkscape:grid
       type="xygrid"
       id="grid4069" />
  </sodipodi:namedview>
  <defs
     id="defs3">
    <linearGradient
       inkscape:collect="always"
       id="linearGradient5416">
      <stop
         style="stop-color:#edd400;stop-opacity:1;"
         offset="0"
         id="stop5412" />
      <stop
         style="stop-color:#cc0000;stop-opacity:1"
         offset="1"
         id="stop5414" />
    </linearGradient>
    <linearGradient
       id="linearGradient5392"
       osb:paint="solid">
      <stop
         style="stop-color:#204a87;stop-opacity:1;"
         offset="0"
         id="stop5390" />
    </linearGradient>
    <linearGradient
       inkscape:collect="always"
       xlink:href="#linearGradient5416"
       id="linearGradient5418"
       x1="-14"
       y1="2.25"
       x2="-1.0000001"
       y2="2.25"
       gradientUnits="userSpaceOnUse" />
  </defs>
  <sodipodi:namedview
     stroke="#ef2929"
     fill="#eeeeec"
     pagecolor="#ffffff"
     bordercolor="#666666"
     borderopacity="0.25490196"
     inkscape:pageopacity="0.0"
     inkscape:pageshadow="2"
     inkscape:zoom="1"
     inkscape:cx="-14.198652"
     inkscape:cy="-5.1663457"
     inkscape:current-layer="layer1"
     showgrid="false"
     inkscape:grid-bbox="true"
     inkscape:document-units="px"
     inkscape:showpageshadow="false"
     inkscape:window-width="872"
     inkscape:window-height="659"
     inkscape:window-x="403"
     inkscape:window-y="296"
     width="32px"
     height="32px"
     id="namedview73" />
  <metadata
     id="metadata4">
    <rdf:RDF>
      <cc:Work
         rdf:about="">
        <dc:format>image/svg+xml</dc:format>
        <dc:type
           rdf:resource="http://purl.org/dc/dcmitype/StillImage" />
        <dc:creator>
          <cc:Agent>
            <dc:title>Jakub Steiner</dc:title>
          </cc:Agent>
        </dc:creator>
        <dc:source>http://jimmac.musichall.cz</dc:source>
        <cc:license
           rdf:resource="http://creativecommons.org/licenses/by-sa/2.0/" />
        <dc:title />
      </cc:Work>
      <cc:License
         rdf:about="http://creativecommons.org/licenses/by-sa/2.0/">
        <cc:permits
           rdf:resource="http://web.resource.org/cc/Reproduction" />
        <cc:permits
           rdf:resource="http://web.resource.org/cc/Distribution" />
        <cc:requires
           rdf:resource="http://web.resource.org/cc/Notice" />
        <cc:requires
           rdf:resource="http://web.resource.org/cc/Attribution" />
        <cc:permits
           rdf:resource="http://web.resource.org/cc/DerivativeWorks" />
        <cc:requires
           rdf:resource="http://web.resource.org/cc/ShareAlike" />
      </cc:License>
    </rdf:RDF>
  </metadata>
  <g
     id="layer1"
     inkscape:label="Layer 1"
     inkscape:groupmode="layer">
    <g
       id="g4153">
      <path
         sodipodi:nodetypes="cssssccccccssssscccc"
         id="path103"
         d="M 14.09482,2.12222 C 14.615493,2.12222 15,2.5259231 15,2.981711 v 1.627065 c 0,0.4558076 -0.384507,0.8590756 -0.90518,0.8590756 H 8.598794 c -0.4203304,0 -0.5216641,0.058048 -0.6541238,0.1608828 C 7.8122105,5.7315391 7.7466579,5.9031004 7.7466579,6.1654323 L 7.7455179,7 H 7.2533416 l 0.00114,-0.8350523 C 7.2545688,5.8376558 7.369785,5.4794292 7.6297778,5.2776666 7.8899037,5.0757854 8.1109268,5 8.598781,5 h 5.496026 c 0.210026,0 0.413004,-0.124274 0.413004,-0.3911746 v -1.627065 c 0,-0.2668907 -0.202978,-0.4455726 -0.413004,-0.4455726 H 10 V 2.1222496 h 4.094807 z"
         inkscape:connector-curvature="0"
         style="color:#000000;text-indent:0;text-transform:none;fill:#ffffff;fill-opacity:1;stroke:#000000;stroke-width:0.5;stroke-miterlimit:4;stroke-dasharray:none;stroke-opacity:1" />
      <rect
         transform="scale(-1,1)"
         id="rect99"
         x="-8.5907125"
         y="7.1592722"
         width="2.1814561"
         height="8.6814556"
         ry="0.30862364"
         style="color:#000000;fill:#204a87;fill-opacity:1;stroke:#204a87;stroke-width:0.318544;stroke-miterlimit:4;stroke-dasharray:none;stroke-opacity:1" />
      <rect
         transform="scale(-1,1)"
         id="rect107"
         x="-13.748775"
         y="0.25122532"
         width="12.497549"
         height="3.9975493"
         ry="1.4626008"
         rx="0.78940558"
         style="color:#000000;fill:url(#linearGradient5418);fill-opacity:1;stroke:#000000;stroke-width:0.50245076;stroke-miterlimit:4;stroke-dasharray:none;stroke-opacity:1" />
      <rect
         transform="scale(-1,1)"
         y="4.9960036e-16"
         x="-16"
         height="16"
         width="16"
         id="rect4135"
         style="color:#000000;clip-rule:nonzero;display:inline;overflow:visible;visibility:visible;opacity:0;isolation:auto;mix-blend-mode:normal;color-interpolation:sRGB;color-interpolation-filters:linearRGB;solid-color:#000000;solid-opacity:1;fill:#505050;fill-opacity:1;fill-rule:nonzero;stroke:none;stroke-width:0.2;stroke-linecap:round;stroke-linejoin:round;stroke-miterlimit:4;stroke-dasharray:none;stroke-dashoffset:0;stroke-opacity:1;color-rendering:auto;image-rendering:auto;shape-rendering:auto;text-rendering:auto;enable-background:accumulate" />
      <path
         id="path109"
         sodipodi:nodetypes="ccccc"
         d="M 8.6274803,8.1557354 H 6.3964489 c -0.3636403,2.2196756 -0.2738056,4.3539486 -0.00507,6.5736536 0.7784373,0.181915 1.4815944,0.118496 2.2209596,0.01206 0.2612867,-2.219612 0.3477822,-4.365604 0.015159,-6.585197 z"
         inkscape:connector-curvature="0"
         style="color:#000000;fill:#729fcf;fill-opacity:1;stroke:#3465a4;stroke-width:0.31147718;stroke-miterlimit:4;stroke-dasharray:none;stroke-opacity:1" />
    </g>
  </g>
</svg>
